X: 19
T:Rollstone Mountain
% Nottingham Music Database
S:via PR
M:4/4
L:1/4
K:D
FG |"D"A3/2B/2 AF|Ad fd|"G"G3/2A/2 "D"GF|"Em"E2 "Em7"EF|"A"G3/2A/2 cB|
"A"AB "A7"GA|"D"F2 F2|F2 FG|"D"A3/2B/2 AF|Ad fd|"G"B3/2^A/2 Be|
"Em"g2 Bd|"A"c3/2d/2 cB|"A7"Ac ec|"D"d2 d2|d2 fg||
"D"a2 a^g/2a/2|ba gf|"Em"g2 B2|"Em"e2 "E7"ed|"A"c3/2d/2 cB|"A"Ac "A7"de|\
"D"f2 f2|f2 fg|
"D"a2 a^g/2a/2|"B7"ba gf|"Em"g2 B2|"Em"e2 "E7"ed|"A"c3/2d/2 cB|"A7"Ac ec|\
"D"d2 "G"d2|"D"d2 ||<end>
<start>
